outputs/icons/enterprise/server_round.svg

<svg xmlns="http://www.w3.org/2000/svg" width="1200" height="1200" fill="none"><path fill="#000" d="M375 300q-31.25 0-53.125 21.875T300 375t21.875 53.125T375 450t53.125-21.875T450 375t-21.875-53.125T375 300m0 500q-31.25-.001-53.125 21.875C307.291 836.46 300 854.165 300 875s7.291 38.54 21.875 53.125Q343.75 950.001 375 950q31.25.001 53.125-21.875C442.709 913.54 450 895.835 450 875s-7.291-38.54-21.875-53.125Q406.25 799.999 375 800M200 150h800q21.247 0 35.625 14.375Q1050.001 178.75 1050 200v350q.001 21.247-14.375 35.625Q1021.247 600.001 1000 600H200q-21.25.001-35.625-14.375Q150 571.247 150 550V200q0-21.25 14.375-35.625T200 150m50 100v250h700V250zm-50 400h800q21.247-.001 35.625 14.375Q1050.001 678.753 1050 700v350q.001 21.247-14.375 35.625-14.378 14.376-35.625 14.375H200q-21.25.001-35.625-14.375Q150 1071.247 150 1050V700q0-21.247 14.375-35.625Q178.75 649.999 200 650m50 100v250h700V750z"/></svg>

<svg width="1200" height="1200" viewBox="0 0 1200 1200" fill="none" xmlns="http://www.w3.org/2000/svg"><path d="M375 300C354.166 300 336.459 307.291 321.875 321.875C307.291 336.459 300 354.166 300 375C300 395.834 307.291 413.541 321.875 428.125C336.459 442.709 354.166 450 375 450C395.834 450 413.541 442.709 428.125 428.125C442.709 413.541 450 395.834 450 375C450 354.166 442.709 336.459 428.125 321.875C413.541 307.291 395.834 300 375 300ZM375 800C354.166 800 336.459 807.29 321.875 821.875C307.291 836.46 300 854.165 300 875C300 895.835 307.291 913.54 321.875 928.125C336.459 942.71 354.166 950 375 950C395.834 950 413.541 942.71 428.125 928.125C442.709 913.54 450 895.835 450 875C450 854.165 442.709 836.46 428.125 821.875C413.541 807.29 395.834 800 375 800ZM200 150H1000C1014.165 150 1026.04 154.791 1035.625 164.375C1045.21 173.958 1050 185.834 1050 200V550C1050 564.165 1045.21 576.04 1035.625 585.625C1026.04 595.21 1014.165 600 1000 600H200C185.834 600 173.958 595.21 164.375 585.625C154.791 576.04 150 564.165 150 550V200C150 185.834 154.791 173.958 164.375 164.375C173.958 154.791 185.834 150 200 150ZM250 250V500H950V250H250ZM200 650H1000C1014.165 650 1026.04 654.79 1035.625 664.375C1045.21 673.96 1050 685.835 1050 700V1050C1050 1064.165 1045.21 1076.04 1035.625 1085.625C1026.04 1095.21 1014.165 1100 1000 1100H200C185.834 1100 173.958 1095.21 164.375 1085.625C154.791 1076.04 150 1064.165 150 1050V700C150 685.835 154.791 673.96 164.375 664.375C173.958 654.79 185.834 650 200 650ZM250 750V1000H950V750H250Z" fill="black"/></svg>
